svgs/sharp-regular/file-mp3.svg

<svg xmlns="http://www.w3.org/2000/svg" viewBox="0 0 512 512"><!--! Font Awesome Pro 6.6.0 by @fontawesome - https://fontawesome.com License - https://fontawesome.com/license (Commercial License) Copyright 2024 Fonticons, Inc. --><path d="M48 464l32 0 0 48-32 0L0 512l0-48L0 48 0 0 48 0 256 0 384 128l0 176-48 0 0-144-112 0 0-112L48 48l0 416zm208-96l0 128 0 16-32 0 0-16 0-74.2-17.9 33.7-13.9 26.2-14.3-26L160 423l0 73 0 16-32 0 0-16 0-128 0-16 16 0 4 0 9.5 0 4.6 8.3 29.7 54 28.5-53.8 4.5-8.5 9.6 0 5.6 0 16 0 0 16zm48-16l32 0c30.9 0 56 25.1 56 56s-25.1 56-56 56l-16 0 0 32 0 16-32 0 0-16 0-48 0-80 0-16 16 0zm32 80c13.3 0 24-10.7 24-24s-10.7-24-24-24l-16 0 0 48 16 0zm96-80l32 0c26.5 0 48 21.5 48 48c0 12.3-4.6 23.5-12.2 32c7.6 8.5 12.2 19.7 12.2 32c0 26.5-21.5 48-48 48l-32 0-16 0 0-32 16 0 32 0c8.8 0 16-7.2 16-16s-7.2-16-16-16l-24 0-16 0 0-32 16 0 24 0c8.8 0 16-7.2 16-16s-7.2-16-16-16l-32 0-16 0 0-32 16 0z"/></svg>

<svg xmlns="http://www.w3.org/2000/svg" viewBox="0 0 512 512"><!--! Font Awesome Pro 6.5.2 by @fontawesome - https://fontawesome.com License - https://fontawesome.com/license (Commercial License) Copyright 2024 Fonticons, Inc. --><path d="M48 464H64v48H48 0V464 48 0H48 256L384 128V288H336V160H224V48H48V464zm208-96V496v16H224V496 421.8l-17.9 33.7-13.9 26.2-14.3-26L160 423v73 16H128V496 368 352l16 0 4 0 9.5 0 4.6 8.3 29.7 54 28.5-53.8 4.5-8.5 9.6 0 5.6 0 16 0v16zm48-16h32c30.9 0 56 25.1 56 56s-25.1 56-56 56H320v32 16H288V496 448 368 352h16zm32 80c13.3 0 24-10.7 24-24s-10.7-24-24-24H320v48h16zm96-80h32c26.5 0 48 21.5 48 48c0 12.3-4.6 23.5-12.2 32c7.6 8.5 12.2 19.7 12.2 32c0 26.5-21.5 48-48 48H432 416V480h16 32c8.8 0 16-7.2 16-16s-7.2-16-16-16H440 424V416h16 24c8.8 0 16-7.2 16-16s-7.2-16-16-16H432 416V352h16z"/></svg>
